assets/images/block-icon-form.svg

<svg width="22" height="22" viewBox="0 0 22 22" xmlns="http://www.w3.org/2000/svg"><path d="M11 2l-3 6-6 .75 4.13 4.62-1.13 6.63 6-3 6 3-1.12-6.63 4.12-4.62-6-.75-3-6zm0 2.24l2.34 4.69 4.65.58-3.18 3.56.87 5.15-4.68-2.34v-11.64zm8.28-.894v.963h-3.272v2.691h-1.017v-6.3h4.496v.963h-3.479v1.683h3.272z"/></svg>

<svg xmlns="http://www.w3.org/2000/svg" width="22" height="22"><path d="M11 2L8 8l-6 .75 4.13 4.62L5 20l6-3 6 3-1.12-6.63L20 8.75 14 8l-3-6zm0 2.24l2.34 4.7L18 9.5l-3.2 3.57.88 5.15L11 15.88V4.24zm8.28-.9v.97H16V7h-1V.7h4.5v.96H16v1.7h3.28z"/></svg>
